**kern	**silbe	**harmony	**chordsym	**phrase	**timestamp	**leadinstrument
*ICvox	*	*M4/4	*M4/4	*	*	*
*A:	*	*A:	*A:	*	*	*
*M4/4	*	*	*	*	*	*
*clefG2	*	*	*	*	*	*
r;	.	1r;	r	.	0	r
r;	.	1r;	r	.	0.232	r
r;	.	1r;	r	.	.	r
r;	.	1r;	r	.	.	r
r;	.	1r;	r	.	.	r
=1	=1	=1	=1	=1	=1	=1
1r	.	2AM	A:maj (A C# E)	newline	11.076	piano
.	.	2DM	D:maj (D F# A)	.	.	piano
=2	=2	=2	=2	=2	=2	=2
4r	.	2AM	A:maj (A C# E)	.	.	piano
8r	.	.	.	.	.	.
16c#	Chi-	.	.	.	.	.
16d	-qui-	.	.	.	.	.
8e	-ti-	.	.	.	.	.
.	.	2DM	D:maj (D F# A)	.	.	piano
8f#	-ta	.	.	.	.	.
16e	tell	.	.	.	.	.
16d	me	.	.	.	.	.
8c#	what's	.	.	.	.	.
=3	=3	=3	=3	=3	=3	=3
*	*	*>B_verse	*>B_verse	*>B_verse	*>B_verse	*>B_verse
2e	wrong?.	2AM	A:maj (A C# E)	newline	16.786	voice
2r	.	2DM	D:maj (D F# A)	.	.	voice
=4	=4	=4	=4	=4	=4	=4
4r	.	1AM	A:maj (A C# E)	.	.	voice
8r	.	.	.	.	.	.
16c#	You're	.	.	.	.	.
16d	en-	.	.	.	.	.
4e	-chained	.	.	.	.	.
4f#	by	.	.	.	.	.
=5	=5	=5	=5	=5	=5	=5
8e	your	1AM	A:maj (A C# E)	.	.	voice
8d	own	.	.	.	.	.
8c#	sor-	.	.	.	.	.
[8B	-row.	.	.	.	.	.
2B]	_	.	.	.	.	.
=6	=6	=6	=6	=6	=6	=6
1r	.	1EM	E:maj (E G# B)	.	.	voice
=7	=7	=7	=7	=7	=7	=7
4.g#	In	2EM	E:maj (E G# B)	newline	27.876	voice
16f#	_	.	.	.	.	.
16g#	_	.	.	.	.	.
4.a	_	2DM	D:maj (F# D A)	.	.	voice
8f#	your	.	.	.	.	.
=8	=8	=8	=8	=8	=8	=8
4.e	eyes	2EM	E:maj (E G# B)	.	.	voice
16B	there	.	.	.	.	.
16c#	is	.	.	.	.	.
4d	no	2EMm	E:7 (G# E B D)	.	.	voice
4d	hope	.	.	.	.	.
=9	=9	=9	=9	=9	=9	=9
8d	for	2AM	A:maj (A C# E)	.	.	voice
8c#	to-	.	.	.	.	.
8B	-morr-	.	.	.	.	.
[8c#	-ow.	.	.	.	.	.
2c#]	_	2DM	D:maj (D F# A)	.	.	voice
=10	=10	=10	=10	=10	=10	=10
4r	.	2AM	A:maj (A C# E)	.	.	voice
8r	.	.	.	.	.	.
16c#	How	.	.	.	.	.
16d	I	.	.	.	.	.
8e	hate	2DM	D:maj (D F# A)	.	.	voice
8f#	to	.	.	.	.	.
16e	see	.	.	.	.	.
16d	you	.	.	.	.	.
8c#	like	.	.	.	.	.
=11	=11	=11	=11	=11	=11	=11
2e	this.	2AM	A:maj (A C# E)	newline	39.062	voice
2r	.	2DM	D:maj (D F# A)	.	.	voice
=12	=12	=12	=12	=12	=12	=12
4r	.	1AM	A:maj (A C# E)	.	.	voice
8r	.	.	.	.	.	.
16c#	There	.	.	.	.	.
16d	is	.	.	.	.	.
4e	no	.	.	.	.	.
4f#	way	.	.	.	.	.
=13	=13	=13	=13	=13	=13	=13
8g#	you	2C#m	C#:min (C# E G#)	.	.	voice
16f#	can	.	.	.	.	.
16e	de-	.	.	.	.	.
8g#	-ny	.	.	.	.	.
[8e	it.	.	.	.	.	.
4e]	_	2C#m	C#:min(9) (C# E G# D#)	.	.	voice
4r	.	.	.	.	.	.
=14	=14	=14	=14	=14	=14	=14
1r	.	2C#m	C#:min (C# E G#)	.	.	voice
.	.	2C#m	C#:min(9) (C# E G# D#)	.	.	voice
=15	=15	=15	=15	=15	=15	=15
4.g#	I	2EM	E:maj (E G# B)	newline	50.084	voice
16f#	_	.	.	.	.	.
16g#	_	.	.	.	.	.
4.a	_	2DM	D:maj (D F# A)	.	.	voice
8f#	can	.	.	.	.	.
=16	=16	=16	=16	=16	=16	=16
4.e	see	1EM	E:maj (E G# B)	.	.	voice
16B	that	.	.	.	.	.
16c#	you're	.	.	.	.	.
4d	oh	.	.	.	.	.
4d	so	.	.	.	.	.
=17	=17	=17	=17	=17	=17	=17
8.d	sad,	2AM	A:maj (A C# E)	.	.	voice
16c#	so	.	.	.	.	.
8B	qui-	.	.	.	.	.
[8A	-et.	.	.	.	.	.
2A]	_	2DM	D:maj (D F# A)	.	.	voice
=18	=18	=18	=18	=18	=18	=18
4r	.	1AM	A:maj (A C# E)	.	.	voice
8r	.	.	.	.	.	.
16c#	Chi-	.	.	.	.	.
16d	-qui-	.	.	.	.	.
8e	-ti-	.	.	.	.	.
8f#	-ta	.	.	.	.	.
16e	tell	.	.	.	.	.
16d	me	.	.	.	.	.
8c#	the	.	.	.	.	.
=19	=19	=19	=19	=19	=19	=19
*	*	*>B_verse	*>B_verse	*>B_verse	*>B_verse	*>B_verse
2e	truth.	2AM	A:maj (A C# E)	newline	61.263	voice
2r	.	2DM	D:maj (D F# A)	.	.	voice
=20	=20	=20	=20	=20	=20	=20
4r	.	1AM	A:maj (A C# E)	.	.	voice
8r	.	.	.	.	.	.
16c#	I'm	.	.	.	.	.
16d	a	.	.	.	.	.
4e	shoul-	.	.	.	.	.
4f#	-der	.	.	.	.	.
=21	=21	=21	=21	=21	=21	=21
8e	you	2AM	A:maj (A C# E)	.	.	voice
8d	can	.	.	.	.	.
8c#	cry	.	.	.	.	.
[8B	on.	.	.	.	.	.
2B]	_	2EM	E:maj (E G# B)	.	.	voice
=22	=22	=22	=22	=22	=22	=22
1r	.	1EM	E:maj (E G# B)	.	.	voice
=23	=23	=23	=23	=23	=23	=23
4.g#	Your	2EM	E:maj (E G# B)	newline	72.655	voice
16f#	_	.	.	.	.	.
16g#	_	.	.	.	.	.
4.a	_	2DM	D:maj (D F# A)	.	.	voice
8f#	best	.	.	.	.	.
=24	=24	=24	=24	=24	=24	=24
4.e	friend;	1EM	E:maj (E G# B)	.	.	voice
16B	I'm	.	.	.	.	.
16c#	the	.	.	.	.	.
4d	one	.	.	.	.	.
4d	you	.	.	.	.	.
=25	=25	=25	=25	=25	=25	=25
8d	must	1AM	A:maj (A C# E)	.	.	voice
16c#	re-	.	.	.	.	.
[16B	-ly	.	.	.	.	.
8B]	_	.	.	.	.	.
[8c#	on.	.	.	.	.	.
2c#]	_	.	.	.	.	.
=26	=26	=26	=26	=26	=26	=26
4r	.	1AM	A:maj (A C# E)	.	.	voice
8r	.	.	.	.	.	.
16c#	You	.	.	.	.	.
16d	were	.	.	.	.	.
8e	al-	.	.	.	.	.
8f#	-ways	.	.	.	.	.
16e	sure	.	.	.	.	.
16d	of	.	.	.	.	.
8c#	your-	.	.	.	.	.
=27	=27	=27	=27	=27	=27	=27
4e	-self.	2AM	A:maj (A C# E)	newline	84.001	voice
4r	.	.	.	.	.	.
2r	.	2DM	D:maj (D F# A)	.	.	voice
=28	=28	=28	=28	=28	=28	=28
4r	.	1AM	A:maj (A C# E)	.	.	voice
8r	.	.	.	.	.	.
16c#	Now	.	.	.	.	.
16d	I	.	.	.	.	.
4e	see	.	.	.	.	.
4f#	you've	.	.	.	.	.
=29	=29	=29	=29	=29	=29	=29
8g#	bro-	2C#m	C#:min (C# E G#)	.	.	voice
16f#	-ken	.	.	.	.	.
16e	a	.	.	.	.	.
8g#	fea-	.	.	.	.	.
[8e	-ther.	.	.	.	.	.
2e]	_	2C#m	C#:min(9) (C# E G# D#)	.	.	voice
=30	=30	=30	=30	=30	=30	=30
1r	.	2C#m	C#:min (C# E G#)	.	.	voice
.	.	2C#m	C#:min(9) (C# E G# D#)	.	.	voice
=31	=31	=31	=31	=31	=31	=31
4.g#	I	2EM	E:maj (E G# B)	newline	95.423	voice
16f#	_	.	.	.	.	.
16g#	_	.	.	.	.	.
4.a	_	2DM	D:maj (D F# A)	.	.	voice
8f#	_	.	.	.	.	.
=32	=32	=32	=32	=32	=32	=32
4e	hope	1EM	E:maj (E G# B)	.	.	voice
8r	.	.	.	.	.	.
16d	we	.	.	.	.	.
16e	can	.	.	.	.	.
8r	.	.	.	.	.	.
[8f#	patch	.	.	.	.	.
8f#]	_	.	.	.	.	.
16f#	it	.	.	.	.	.
16f#	up	.	.	.	.	.
=33	=33	=33	=33	=33	=33	=33
16r	.	2AM	A:maj (A C# E)	.	.	voice
8e	to-	.	.	.	.	.
[16d	-ge-	.	.	.	.	.
8d]	_	.	.	.	.	.
[8c#	-ther.	.	.	.	.	.
2c#]	_	2DM	D:maj (D F# A)	.	.	voice
=34	=34	=34	=34	=34	=34	=34
4r	.	1AM	A:maj (A C# E)	.	.	voice
8r	.	.	.	.	.	.
16f#	Chi-	.	.	.	.	.
16g#	-qui-	.	.	.	.	.
8a	-ti-	.	.	.	.	.
8b	-ta	.	.	.	.	.
16a	you	.	.	.	.	.
16g#	and	.	.	.	.	.
8f#	I	.	.	.	.	.
=35	=35	=35	=35	=35	=35	=35
*	*	*>C_chorus	*>C_chorus	*>C_chorus	*>C_chorus	*>C_chorus
[1a	know	1DM	D:maj (D F# A)	newline	106.811	voice
=36	=36	=36	=36	=36	=36	=36
*M5/4	*	*M5/4	*M5/4	*M5/4	*M5/4	*M5/4
4a]	_	2.DM	D:maj (D F# A)	.	.	voice
8r	.	.	.	.	.	.
16f#	how	.	.	.	.	.
16g#	the	.	.	.	.	.
8a	heart-	.	.	.	.	.
8b	-aches	.	.	.	.	.
16a	come	2DM	D:maj (D F# A)	.	.	voice
16g#	and	.	.	.	.	.
8f#	they	.	.	.	.	.
8a	go,	.	.	.	.	.
16f#	and	.	.	.	.	.
16g#	the	.	.	.	.	.
=37	=37	=37	=37	=37	=37	=37
*M4/4	*	*M4/4	*M4/4	*M4/4	*M4/4	*M4/4
8a	scars	1AM	A:maj (A C# E)	.	.	voice
8e	they're	.	.	.	.	.
8d	leav-	.	.	.	.	.
[8c#	-ing.	.	.	.	.	.
2c#]	_	.	.	.	.	.
=38	=38	=38	=38	=38	=38	=38
4r	.	1AM	A:maj (A C# E)	.	.	voice
8c#	You'll	.	.	.	.	.
16d	be	.	.	.	.	.
[16e	dan-	.	.	.	.	.
8e]	_	.	.	.	.	.
8f#	-cing	.	.	.	.	.
8g#	once	.	.	.	.	.
16a	a-	.	.	.	.	.
[16g#	-gain;	.	.	.	.	.
=39	=39	=39	=39	=39	=39	=39
4.g#]	_	2EM	E:maj (E G# B)	newline	118.923	voice
16f#	and	.	.	.	.	.
16g#	the	.	.	.	.	.
[4a	pain	2DM	D:maj (D F# A)	.	.	voice
8a]	_	.	.	.	.	.
8f#	will	.	.	.	.	.
=40	=40	=40	=40	=40	=40	=40
4e	end.	1EM	E:maj (E G# B)	.	.	voice
8r	.	.	.	.	.	.
16B	You	.	.	.	.	.
16c#	will	.	.	.	.	.
4d	have	.	.	.	.	.
4d	no	.	.	.	.	.
=41	=41	=41	=41	=41	=41	=41
8d	time	1AM	A:maj (A C# E)	.	.	voice
16c#	for	.	.	.	.	.
[16B	grie-	.	.	.	.	.
8B]	_	.	.	.	.	.
[8c#	-ving.	.	.	.	.	.
2c#_	_	.	.	.	.	.
=42	=42	=42	=42	=42	=42	=42
4c#]	_	1AM	A:maj (A C# E)	.	.	voice
8r	.	.	.	.	.	.
16f#	Chi-	.	.	.	.	.
16g#	-qui-	.	.	.	.	.
8a	-ti-	.	.	.	.	.
8b	-ta	.	.	.	.	.
16a	you	.	.	.	.	.
16g#	and	.	.	.	.	.
8f#	I	.	.	.	.	.
=43	=43	=43	=43	=43	=43	=43
[1a	cry;	1DM	D:maj (D F# A)	newline	130.271	voice
=44	=44	=44	=44	=44	=44	=44
*M5/4	*	*M5/4	*M5/4	*M5/4	*M5/4	*M5/4
4a]	_	2.DM	D:maj (D F# A)	.	.	voice
8r	.	.	.	.	.	.
16f#	but	.	.	.	.	.
16g#	the	.	.	.	.	.
8a	sun	.	.	.	.	.
8b	is	.	.	.	.	.
16a	still	2DM	D:maj (D F# A)	.	.	voice
16g#	in	.	.	.	.	.
8f#	the	.	.	.	.	.
8a	sky,	.	.	.	.	.
8b	and	.	.	.	.	.
=45	=45	=45	=45	=45	=45	=45
*M4/4	*	*M4/4	*M4/4	*M4/4	*M4/4	*M4/4
8cc#	shin-	2AM	A:maj (A C# E)	.	.	voice
16b	-ing	.	.	.	.	.
16a	a-	.	.	.	.	.
8cc#	-bove	.	.	.	.	.
[8a	you.	.	.	.	.	.
2a]	_	2AM	A:maj6 (A C# E F#)	.	.	voice
=46	=46	=46	=46	=46	=46	=46
4r	.	2AMM	A:maj7 (A C# E G#)	.	.	voice
8c#	Let	.	.	.	.	.
16d	me	.	.	.	.	.
[16e	hear	.	.	.	.	.
8e]	_	2AM	A:maj6 (A C# E F#)	.	.	voice
8f#	you	.	.	.	.	.
8g#	sing	.	.	.	.	.
8b	once	.	.	.	.	.
=47	=47	=47	=47	=47	=47	=47
4.g#	more|	2EM	E:maj (E G# B)	newline	142.405	voice
16f#	like	.	.	.	.	.
16g#	you	.	.	.	.	.
[4a	did	2DM	D:maj (D F# A)	.	.	voice
8a]	_	.	.	.	.	.
8f#	be-	.	.	.	.	.
=48	=48	=48	=48	=48	=48	=48
4e	-fore.	1EM	E:maj (E G# B)	.	.	voice
8r	.	.	.	.	.	.
16d	Sing	.	.	.	.	.
16e	a	.	.	.	.	.
4f#	new	.	.	.	.	.
4f#	song	.	.	.	.	.
=49	=49	=49	=49	=49	=49	=49
8f#	Chi-	1AM	A:maj (A C# E)	.	.	voice
16e	-qui-	.	.	.	.	.
[16d	-ti-	.	.	.	.	.
8d]	_	.	.	.	.	.
[8c#	-ta.	.	.	.	.	.
2c#]	_	.	.	.	.	.
=50	=50	=50	=50	=50	=50	=50
2r	.	1AM	A:maj (A C# E)	.	.	voice
4.b	Try	.	.	.	.	.
8a	once	.	.	.	.	.
=51	=51	=51	=51	=51	=51	=51
4.g#	more|	2EM	E:maj (E G# B)	newline	153.865	voice
16f#	like	.	.	.	.	.
16g#	you	.	.	.	.	.
4.a	did	2DM	D:maj (D F# A)	.	.	voice
8f#	be-	.	.	.	.	.
=52	=52	=52	=52	=52	=52	=52
4e	-fore.	1EM	E:maj (E G# B)	.	.	voice
8r	.	.	.	.	.	.
16B	Sing	.	.	.	.	.
16c#	a	.	.	.	.	.
4d	new	.	.	.	.	.
4d	song	.	.	.	.	.
=53	=53	=53	=53	=53	=53	=53
8d	Chi-	2AM	A:maj (A C# E)	.	.	voice
16c#	-qui-	.	.	.	.	.
[16B	-ti-	.	.	.	.	.
8B]	_	.	.	.	.	.
[8A	-ta.	.	.	.	.	.
2A_	_	2DM	D:maj (D F# A)	.	.	voice
=54	=54	=54	=54	=54	=54	=54
4.A]	_	1AM	A:maj (A C# E)	.	.	voice
16c#	So	.	.	.	.	.
16d	the	.	.	.	.	.
8e	walls	.	.	.	.	.
8f#	came	.	.	.	.	.
16e	tum-	.	.	.	.	.
16d	-bl-	.	.	.	.	.
8c#	-ing	.	.	.	.	.
=55	=55	=55	=55	=55	=55	=55
*	*	*>B_verse	*>B_verse	*>B_verse	*>B_verse	*>B_verse
2e	down;	2AM	A:maj (A C# E)	newline	165.502	voice
2r	.	2DM	D:maj (D F# A)	.	.	voice
=56	=56	=56	=56	=56	=56	=56
4r	.	1AM	A:maj (A C# E)	.	.	voice
8r	.	.	.	.	.	.
16c#	and	.	.	.	.	.
16d	your	.	.	.	.	.
4e	love's	.	.	.	.	.
4f#	a	.	.	.	.	.
=57	=57	=57	=57	=57	=57	=57
8e	blown	2AM	A:maj (A C# E)	.	.	voice
8d	out	.	.	.	.	.
8c#	can-	.	.	.	.	.
[8B	-dle.	.	.	.	.	.
2B]	_	2EM	E:maj (E G# B)	.	.	voice
=58	=58	=58	=58	=58	=58	=58
1r	.	1EM	E:maj (E G# B)	.	.	voice
=59	=59	=59	=59	=59	=59	=59
4.g#	All	2EM	E:maj (E G# B)	newline	176.881	voice
16f#	_	.	.	.	.	.
16g#	_	.	.	.	.	.
4.a	_	2DM	D:maj (D F# A)	.	.	voice
8f#	is	.	.	.	.	.
=60	=60	=60	=60	=60	=60	=60
4e	gone;	1EM	E:maj (E G# B)	.	.	voice
8r	.	.	.	.	.	.
16B	and	.	.	.	.	.
16c#	it	.	.	.	.	.
4d	seems	.	.	.	.	.
4d	too	.	.	.	.	.
=61	=61	=61	=61	=61	=61	=61
8d	hard	2AM	A:maj (A C# E)	.	.	voice
8c#	to	.	.	.	.	.
8B	han-	.	.	.	.	.
[8c#	-dle.	.	.	.	.	.
2c#]	_	2DM	D:maj (D F# A)	.	.	voice
=62	=62	=62	=62	=62	=62	=62
4r	.	1AM	A:maj (A C# E)	.	.	voice
8r	.	.	.	.	.	.
16c#	Chi-	.	.	.	.	.
16d	-qui-	.	.	.	.	.
8e	-ti-	.	.	.	.	.
8f#	-ta	.	.	.	.	.
16e	tell	.	.	.	.	.
16d	me	.	.	.	.	.
8c#	the	.	.	.	.	.
=63	=63	=63	=63	=63	=63	=63
2e	truth.	2AM	A:maj (A C# E)	newline	188.403	voice
2r	.	2DM	D:maj (D F# A)	.	.	voice
=64	=64	=64	=64	=64	=64	=64
4r	.	1AM	A:maj (A C# E)	.	.	voice
8r	.	.	.	.	.	.
16c#	There	.	.	.	.	.
16d	is	.	.	.	.	.
4e	no	.	.	.	.	.
4f#	way	.	.	.	.	.
=65	=65	=65	=65	=65	=65	=65
8g#	you	2C#m	C#:min (C# E G#)	.	.	voice
16f#	can	.	.	.	.	.
16e	de-	.	.	.	.	.
8g#	-ny	.	.	.	.	.
[8e	it.	.	.	.	.	.
2e]	_	2C#m	C#:min(9) (C# E G# D#)	.	.	voice
=66	=66	=66	=66	=66	=66	=66
1r	.	2C#m	C#:min (C# E G#)	.	.	voice
.	.	2C#m	C#:min(9) (C# E G# D#)	.	.	voice
=67	=67	=67	=67	=67	=67	=67
4.g#	I	2EM	E:maj (E G# B)	newline	199.793	voice
16f#	_	.	.	.	.	.
16g#	_	.	.	.	.	.
4.a	_	2DM	D:maj (D F# A)	.	.	voice
8f#	_	.	.	.	.	.
=68	=68	=68	=68	=68	=68	=68
4e	see	1EM	E:maj (E G# B)	.	.	voice
8r	.	.	.	.	.	.
16B	that	.	.	.	.	.
16c#	you're	.	.	.	.	.
4d	oh	.	.	.	.	.
4d	so	.	.	.	.	.
=69	=69	=69	=69	=69	=69	=69
4d	sad,	2AM	A:maj (A C# E)	.	.	voice
8c#	so	.	.	.	.	.
8B	qui-	.	.	.	.	.
2A	-et	.	.	.	.	.
.	.	2DM	D:maj (D F# A)	.	.	voice
=70	=70	=70	=70	=70	=70	=70
4r	.	1AM	A:maj (A C# E)	.	.	voice
8r	.	.	.	.	.	.
16f#	Chi-	.	.	.	.	.
16g#	-qui-	.	.	.	.	.
8a	-ti-	.	.	.	.	.
8b	-ta	.	.	.	.	.
16a	you	.	.	.	.	.
16g#	and	.	.	.	.	.
8f#	I	.	.	.	.	.
=71	=71	=71	=71	=71	=71	=71
*	*	*>C_chorus	*>C_chorus	*>C_chorus	*>C_chorus	*>C_chorus
1a	know	1DM	D:maj (D F# A)	newline	211.171	voice
=72	=72	=72	=72	=72	=72	=72
*M5/4	*	*M5/4	*M5/4	*M5/4	*M5/4	*M5/4
4r	.	2.DM	D:maj (D F# A)	.	.	voice
8r	.	.	.	.	.	.
16f#	how	.	.	.	.	.
16g#	the	.	.	.	.	.
8a	hear-	.	.	.	.	.
8b	-taches	.	.	.	.	.
16a	come	2DM	D:maj (D F# A)	.	.	voice
16g#	and	.	.	.	.	.
8f#	they	.	.	.	.	.
8a	go,	.	.	.	.	.
16f#	and	.	.	.	.	.
16g#	the	.	.	.	.	.
=73	=73	=73	=73	=73	=73	=73
*M4/4	*	*M4/4	*M4/4	*M4/4	*M4/4	*M4/4
8a	scars	2AM	A:maj (A C# E)	.	.	voice
8e	they're	.	.	.	.	.
8d	leav-	.	.	.	.	.
[8c#	-ing	.	.	.	.	.
2c#]	_	2AM	A:maj6 (A C# E F#)	.	.	voice
=74	=74	=74	=74	=74	=74	=74
4r	.	2AMM	A:maj7 (A C# E G#)	.	.	voice
8c#	You'll	.	.	.	.	.
16d	be	.	.	.	.	.
[16e	dan-	.	.	.	.	.
8e]	_	2AM	A:maj6 (A C# E F#)	.	.	voice
8f#	-cing	.	.	.	.	.
8g#	once	.	.	.	.	.
16a	a-	.	.	.	.	.
[16g#	-gain;	.	.	.	.	.
=75	=75	=75	=75	=75	=75	=75
4.g#]	_	2EM	E:maj (E G# B)	newline	223.32	voice
16f#	and	.	.	.	.	.
16g#	the	.	.	.	.	.
4.a	pain	2DM	D:maj (D F# A)	.	.	voice
8f#	will	.	.	.	.	.
=76	=76	=76	=76	=76	=76	=76
4e	end.	1EM	E:maj (E G# B)	.	.	voice
8r	.	.	.	.	.	.
16B	You	.	.	.	.	.
16c#	will	.	.	.	.	.
4d	have	.	.	.	.	.
4d	no	.	.	.	.	.
=77	=77	=77	=77	=77	=77	=77
8d	time	1AM	A:maj (A C# E)	.	.	voice
16c#	for	.	.	.	.	.
[16B	griev-	.	.	.	.	.
8B]	_	.	.	.	.	.
[8c#	-ing.	.	.	.	.	.
2c#]	_	.	.	.	.	.
=78	=78	=78	=78	=78	=78	=78
4r	.	1AM	A:maj (A C# E)	.	.	voice
8r	.	.	.	.	.	.
16f#	Chi-	.	.	.	.	.
16g#	-qui-	.	.	.	.	.
8a	-ti-	.	.	.	.	.
8b	-ta	.	.	.	.	.
16a	you	.	.	.	.	.
16g#	and	.	.	.	.	.
8f#	I	.	.	.	.	.
=79	=79	=79	=79	=79	=79	=79
1a	cry;	1DM	D:maj (D F# A)	newline	234.703	voice
=80	=80	=80	=80	=80	=80	=80
*M5/4	*	*M5/4	*M5/4	*M5/4	*M5/4	*M5/4
4r	.	2.DM	D:maj (D F# A)	.	.	voice
8r	.	.	.	.	.	.
16f#	but	.	.	.	.	.
16g#	the	.	.	.	.	.
8a	sun	.	.	.	.	.
8b	is	.	.	.	.	.
16a	still	2DM	D:maj (D F# A)	.	.	voice
16g#	in	.	.	.	.	.
8f#	the	.	.	.	.	.
8a	sky,	.	.	.	.	.
8b	and	.	.	.	.	.
=81	=81	=81	=81	=81	=81	=81
*M4/4	*	*M4/4	*M4/4	*M4/4	*M4/4	*M4/4
8cc#	shin-	2AM	A:maj (A C# E)	.	.	voice
16b	-ing	.	.	.	.	.
16a	a-	.	.	.	.	.
8cc#	-bove	.	.	.	.	.
[8a	you	.	.	.	.	.
2a]	_	2AM	A:maj6 (A C# E F#)	.	.	voice
=82	=82	=82	=82	=82	=82	=82
4r	.	2AMM	A:maj7 (A C# E G#)	.	.	voice
8c#	Let	.	.	.	.	.
16d	me	.	.	.	.	.
[16e	hear	.	.	.	.	.
8e]	_	2AM	A:maj6 (A C# E F#)	.	.	voice
8f#	you	.	.	.	.	.
8g#	sing	.	.	.	.	.
8a	once	.	.	.	.	.
=83	=83	=83	=83	=83	=83	=83
4.g#	more|	2EM	E:maj (E G# B)	newline	246.819	voice
16f#	like	.	.	.	.	.
16g#	you	.	.	.	.	.
4.a	did	2DM	D:maj (D F# A)	.	.	voice
8f#	be-	.	.	.	.	.
=84	=84	=84	=84	=84	=84	=84
4e	-fore.	1EM	E:maj (E G# B)	.	.	voice
8r	.	.	.	.	.	.
16d	Sing	.	.	.	.	.
16e	a	.	.	.	.	.
4f#	new	.	.	.	.	.
4f#	song	.	.	.	.	.
=85	=85	=85	=85	=85	=85	=85
8f#	Chi-	1AM	A:maj (A C# E)	.	.	voice
16e	-qui-	.	.	.	.	.
[16d	-ti-	.	.	.	.	.
8d]	_	.	.	.	.	.
[8c#	-ta	.	.	.	.	.
2c#]	_	.	.	.	.	.
=86	=86	=86	=86	=86	=86	=86
2r	.	1AM	A:maj (A C# E)	.	.	voice
4.b	Try	.	.	.	.	.
8a	once	.	.	.	.	.
=87	=87	=87	=87	=87	=87	=87
4.g#	more|	2EM	E:maj (E G# B)	newline	258.25	voice
16f#	like	.	.	.	.	.
16g#	you	.	.	.	.	.
4.a	did	2DM	D:maj (D F# A)	.	.	voice
8f#	be-	.	.	.	.	.
=88	=88	=88	=88	=88	=88	=88
4.e	-fore.	1EM	E:maj (E G# B)	.	.	voice
16d	Sing	.	.	.	.	.
16e	a	.	.	.	.	.
4f#	new	.	.	.	.	.
4f#	song	.	.	.	.	.
=89	=89	=89	=89	=89	=89	=89
8f#	Chi-	2AM	A:maj (A C# E)	.	.	voice
16e	-qui-	.	.	.	.	.
[16d	-ti-	.	.	.	.	.
8d]	_	.	.	.	.	.
[8c#	-ta.	.	.	.	.	.
2c#]	_	2DM	D:maj (D F# A)	.	.	voice
=90	=90	=90	=90	=90	=90	=90
2r	.	1AM	A:maj (A C# E)	.	.	voice
4.b	Try	.	.	.	.	.
8a	once	.	.	.	.	.
=91	=91	=91	=91	=91	=91	=91
4.g#	more|	2EM	E:maj (E G# B)	newline	269.955	voice
16f#	like	.	.	.	.	.
16g#	you	.	.	.	.	.
4.a	did	2DM	D:maj (D F# A)	.	.	voice
8f#	be-	.	.	.	.	.
=92	=92	=92	=92	=92	=92	=92
4e	-fore.	1EM	E:maj (E G# B)	.	.	voice
8r	.	.	.	.	.	.
16B	Sing	.	.	.	.	.
16c#	a	.	.	.	.	.
4d	new	.	.	.	.	.
4d	song	.	.	.	.	.
=93	=93	=93	=93	=93	=93	=93
8f#	Chi-	1AM	A:maj (A C# E)	.	.	voice
8e	-qui-	.	.	.	.	.
8d	-ti-	.	.	.	.	.
[8c#	-ta	.	.	.	.	.
2c#]	_	.	.	.	.	.
=94	=94	=94	=94	=94	=94	=94
r;	.	1r;	r	.	.	r
=95	=95	=95	=95	=95	=95	=95
*	*	*>D_outro	*>D_outro	*>D_outro	*>D_outro	*>D_outro
1r	.	1DM	D:maj (D F# A)	newline	282.053	piano
=96	=96	=96	=96	=96	=96	=96
1r	.	1DM	D:maj (D F# A)	.	.	piano
=97	=97	=97	=97	=97	=97	=97
1r	.	1AM	A:maj (A C# E)	.	.	piano
=98	=98	=98	=98	=98	=98	=98
1r	.	1AM	A:maj (A C# E)	.	.	piano
=99	=99	=99	=99	=99	=99	=99
1r	.	1DM	D:maj (D F# A)	newline	293.279	piano
=100	=100	=100	=100	=100	=100	=100
1r	.	1DM	D:maj (D F# A)	.	.	piano
=101	=101	=101	=101	=101	=101	=101
1r	.	1AM	A:maj (A C# E)	.	.	piano
=102	=102	=102	=102	=102	=102	=102
1r	.	1AM	A:maj (A C# E)	.	.	piano
=103	=103	=103	=103	=103	=103	=103
*	*	*>_fadeout	*>_fadeout	*>_fadeout	*>_fadeout	*>_fadeout
1r	.	1DM	D:maj (D F# A)	newline	304.563	piano
=104	=104	=104	=104	=104	=104	=104
1r	.	1DM	D:maj (D F# A)	.	.	piano
=105	=105	=105	=105	=105	=105	=105
1r	.	1AM	A:maj (A C# E)	.	.	piano
=106	=106	=106	=106	=106	=106	=106
1r	.	1AM	A:maj (A C# E)	.	.	piano
=107	=107	=107	=107	=107	=107	=107
1r	.	1DM	D:maj (D F# A)	newline	315.754	piano
=108	=108	=108	=108	=108	=108	=108
1r	.	1DM	D:maj (D F# A)	.	.	piano
=109	=109	=109	=109	=109	=109	=109
1r	.	1AM	A:maj (A C# E)	.	.	piano
=110	=110	=110	=110	=110	=110	=110
1r	.	1AM	A:maj (A C# E)	.	.	piano
r;	.	1r;	r	.	322.943	r
r;	.	1r;	r	.	324.676	r
*-	*-	*-	*-	*-	*-	*-
!!!BillboardChartDate: 1979/12/15
!!!BillboardPeak: 29
!!!BillboardWeeksOnChart: 12
!!!COC: Abba
!!!ENC: Hubert Leveille-Gauvin
!!!EST: Awating manual error checking and editing.
!!!OTL: Chiquitita
!!!RDF**chordsym: original McGill chord annotation + (implied pitch class set, with bass pitch in first position)
!!!RDF**harmony: **recip + pitch class of root + harmonic quality
!!!RDF**leadinstrument: original McGill primary instrumentation annotation
!!!RDF**phrase: newline = linebreak in original McGill transcription
!!!RDF**timestamp: McGill audio timestamp in seconds
!!!RDT: 2017/01/12/
!!!SampleActualRank: 35
!!!SampleID#: 0183
!!!SampleTargetRank: 34
